X: 30
T: WILLY MacLEAN OF AULTBEA
C: Andrew Rankine
R: jig
B: "The Complete Andrew Rankine Collection of Scottish Country Dance Tunes" p.35
Z: 2017 John Chambers <jc:trillian.mit.edu>
M: 6/8
L: 1/8
K: D
F/E/ |\
"D"D3 d3 | dcB A2F | D2d "Bm"dcB | "A7"A2e ede |\
"D"f3 "D7"d3 | "G"B3 "Em"G3 | "D"faf "Bm"def | "A7"e3 "D"d2 :|
|: A |\
"D"d3 f3 | "G"B3 d3 | "D"Adf afd | "A7"c3 ede |\
"D"f3 "D7"d3 | "G"B3 "Em"G3 | "D"faf "Bm"def | "A7"e3 "D"d2 :|

%%sep 1 1 500

